X:62
T:The Gala
R:jig
C:Paul S. Cranford
O:Cape Breton Island
S:http://www.cranfordpub.com
D:currently unrecorded
B:currently unpublished in book form
Z:psc, (updated 9/9/06)
H:                                                        copyrights Cranford Publications, SOCAN
L:1/8
Q:300
M:6/8
K:F#min
E|FcA BcB|AFE C2 B,|CcA BcB|AFF F2 E|
FcA BAc|ecB c2 f|ecB cBc|AFF F2:|
|:c|efe cAc|fgf f2 e|Acf eAB|cBB B2 c|
[1efe cAc|fec f2 g|acA BcB|AFF F2:|
[2AEF ECB,|CB,C A,2 E|FDA GcB|AFF F2|]
